X: 69
I: linebreak $
T: Mundesse
T: round for three couples
T: Basse Danse: Mon Desir
C: 
N: 
K: C major
M: 2/2
L: 1/4
P: A
 |: "C"c/B/c/d/ "Am"c"Bdim"d | "C"ec "Am"c"G"g | "Dm"ff/e/ d/e/f/d/ | "C"e4 | "G"d/c/d/e/ d"C"e | "F"cc c"G"B/c/ | 
"Dm"d/c/B/A/ "G"B/c/d/B/ | "C"c4 :: 
P: B
"Am"c/B/c/d/ c/d/e/f/ | "Em"g2 z"C"g | "F"a"Am"a/g/ "D"^f/g/a/f/ |  [1 "G"g3z :|] 
 [2 "G"g2 z"D"a/b/ :: 
P: C
"Am"c'"Em"b "Am"c'a | "Em"g2 z"Am"a/b/ | "Am"c'"Em"b "Am"c'a | "Em"g2 z"Am"a/b/ | "Am"c'"Em"b "Am"c'a | 
"Em"g2 z"F"f | "C"e"Dm"d/c/ "G"B/c/d/B/ |  [1 "C"c2 z"D"a/b/ :|]  [2 "C"c3z :: 
P: D
"C"e/d/e/f/ e/f/g/e/ | "F"fe dc | 
"G"B/c/d/c/ B/A/B | "C"c4 :| 

